brandFactory_export/3.Masa/Cohete_3Masa.svg

<?xml version="1.0" encoding="UTF-8"?>
<svg width="24px" height="24px" viewBox="0 0 24 24" version="1.1" xmlns="http://www.w3.org/2000/svg" xmlns:xlink="http://www.w3.org/1999/xlink">
    <title>3.Masa/Cohete_3Masa</title>
    <g id="Symbols" stroke="none" stroke-width="1" fill="none" fill-rule="evenodd">
        <g id="3.Masa/Cohete_3Masa" fill="#5CB615" fill-rule="nonzero">
            <path d="M2.29243697,17.6134454 C1.43529412,18.4739496 0,20.3058824 0,22.9142857 C0,23.3243697 0.329411765,23.6571429 0.739495798,23.6571429 C3.43193277,23.6571429 5.32436975,22.0470588 6.01344538,21.3546218 C7.17647059,20.1848739 7.17647059,18.7865546 6.01344538,17.6134454 C4.84705882,16.4403361 3.45882353,16.4436975 2.29243697,17.6134454 M17.9731092,17.8117647 C18.0369748,17.1731092 17.9058824,16.5310924 17.5932773,15.9697479 C16.507563,16.897479 15.3546218,17.7445378 14.1411765,18.5008403 C14.3462185,18.9411765 14.5411765,19.3848739 14.7226891,19.8184874 C14.9512605,20.3630252 15.2773109,21.1394958 15.5092437,21.4689076 C17.0352941,20.2453782 17.8521008,19.0285714 17.9731092,17.8117647 L17.9731092,17.8117647 Z M4.07731092,9.02184874 C4.46722689,9.18655462 4.86386555,9.36134454 5.25714286,9.54621849 C6.00672269,8.32605042 6.85042017,7.16638655 7.77142857,6.07394958 C7.24369748,5.80840336 6.65546218,5.69411765 6.06722689,5.7512605 C4.84705882,5.87563025 3.62352941,6.71260504 2.4302521,8.23193277 C2.76302521,8.46386555 3.53613445,8.79327731 4.07731092,9.02184874 Z M21.6201681,1.55630252 C20.6890756,1.45210084 18.5882353,1.57310924 16.2756303,2.23529412 L21.4386555,7.42857143 C22.107563,5.07563025 22.2218487,2.94117647 22.1142857,2.04369748 C22.0773109,1.78823529 21.8756303,1.58991597 21.6201681,1.55630252 L21.6201681,1.55630252 Z M19.1327731,14.5815126 C18.9915966,14.7260504 18.8537815,14.8537815 18.7193277,14.9815126 C19.0554622,15.4991597 19.5764706,16.5411765 19.4487395,17.9226891 C19.2907563,19.6168067 18.2285714,21.2369748 16.292437,22.7394958 C16.0033613,23.0016807 15.6033613,23.1058824 15.2201681,23.0184874 C14.3764706,22.8201681 13.9529412,21.8016807 13.3613445,20.3932773 C13.2,20.0033613 13.0252101,19.610084 12.8504202,19.2268908 L12.1848739,19.5529412 C11.3411765,19.9462185 10.6722689,20.1411765 10.1478992,20.1411765 C9.73109244,20.1411765 9.40504202,20.0168067 9.15966387,19.7714286 L3.97310924,14.5579832 C3.25378151,13.8957983 3.70420168,12.5915966 4.18151261,11.5327731 L4.52436975,10.8403361 C4.18487395,10.6857143 3.84537815,10.5344538 3.50252101,10.389916 C2.10084034,9.79495798 1.08907563,9.36806723 0.890756303,8.5210084 C0.83697479,8.30252101 0.810084034,7.86554622 1.19327731,7.41512605 C2.66218487,5.49915966 4.27226891,4.4302521 5.95966387,4.26890756 C6.9512605,4.17815126 7.94285714,4.41344538 8.78655462,4.93781513 C8.90420168,4.81344538 9.02184874,4.68907563 9.12941176,4.57815126 C13.0857143,0.601680672 19.4789916,-0.188235294 21.794958,0.0806722689 C22.7294118,0.201680672 23.4554622,0.931092437 23.5764706,1.85882353 C23.8184874,3.82184874 23.2134454,10.4806723 19.1327731,14.5815126 Z M14.8403361,9.5394958 C14.1478992,9.5394958 13.8991597,9.2907563 13.8991597,8.59495798 C13.8991597,7.89579832 14.1445378,7.65042017 14.8403361,7.65042017 C15.5327731,7.65042017 15.7815126,7.89915966 15.7815126,8.59495798 C15.7815126,9.2907563 15.5327731,9.5394958 14.8403361,9.5394958 Z M14.8403361,6.16134454 C13.3277311,6.16134454 12.4235294,7.06890756 12.4235294,8.59159664 C12.4235294,10.1142857 13.3277311,11.0218487 14.8403361,11.0218487 C16.3529412,11.0218487 17.2571429,10.1109244 17.2571429,8.59159664 C17.2571429,7.07226891 16.3529412,6.16134454 14.8403361,6.16134454 L14.8403361,6.16134454 Z" id="Cohete_3Masa"></path>
        </g>
    </g>
</svg>

<svg width="24" height="24" viewBox="0 0 24 24" xmlns="http://www.w3.org/2000/svg"><path d="M2.292 17.613C1.435 18.473 0 20.306 0 22.914c0 .41.33.743.74.743 2.692 0 4.584-1.61 5.273-2.302 1.163-1.17 1.163-2.568 0-3.742-1.166-1.173-2.554-1.17-3.72 0m15.68.199a3.14 3.14 0 00-.38-1.842 28.611 28.611 0 01-3.452 2.53c.205.441.4.885.582 1.318.228.545.554 1.321.786 1.65 1.526-1.223 2.343-2.44 2.464-3.656zM4.077 9.022c.39.165.787.34 1.18.524.75-1.22 1.593-2.38 2.514-3.472a3.116 3.116 0 00-1.704-.323c-1.22.125-2.443.962-3.637 2.48.333.233 1.106.562 1.647.79zM21.62 1.556c-.93-.104-3.032.017-5.344.68l5.163 5.193c.669-2.353.783-4.488.675-5.385a.574.574 0 00-.494-.488zm-2.487 13.026c-.141.144-.28.272-.414.4.336.517.857 1.56.73 2.94-.158 1.695-1.22 3.315-3.157 4.817-.289.263-.689.367-1.072.28-.844-.199-1.267-1.217-1.859-2.626-.161-.39-.336-.783-.51-1.166l-.666.326c-.844.393-1.513.588-2.037.588-.417 0-.743-.124-.988-.37l-5.187-5.213c-.72-.662-.269-1.966.209-3.025l.342-.693a39.28 39.28 0 00-1.021-.45C2.1 9.795 1.089 9.368.89 8.52c-.054-.218-.08-.655.302-1.106C2.663 5.5 4.273 4.43 5.96 4.27a4.565 4.565 0 012.827.669c.117-.125.235-.249.342-.36C13.086.602 19.48-.188 21.795.081c.934.12 1.66.85 1.781 1.778.242 1.963-.363 8.622-4.443 12.723zM14.84 9.539c-.692 0-.94-.248-.94-.944 0-.7.245-.945.94-.945.693 0 .942.25.942.945 0 .696-.25.944-.942.944zm0-3.378c-1.512 0-2.416.908-2.416 2.43 0 1.523.904 2.43 2.416 2.43 1.513 0 2.417-.91 2.417-2.43 0-1.519-.904-2.43-2.417-2.43z" fill="#5CB615" fill-rule="nonzero"/></svg>
